X: 4210
T: Bluebells
R: jig
M: 6/8
K: Amajor
|:~E3 EFA|c2 ~B2 AF|~E3 FEC|B,2 ~A,2 CE|
FEE c2B|Ace a3|Acf efa|cBB B3:|
|:~a3 afe|fbb baf|eaA cBA|cee e2a|
fec B2c|EcE BAF|Acf efa|1 cBB B3:|2 cBB B2||
|:~f|fec [A3E]|Fdc ~B3|~c3 efe|~a3 cea|
c'ba ~b3|a/b/c'a f3|Acf efa|cBB B2:|

